!!!COM:	Tinctoris, Johannes
!!!CDT:	~1435///-1511//
!!!OPR:	Missa Sine nomine i
!!!ONM:	5
!!!OTL:	Agnus Dei
!!!AGN:	Mass; Agnus Dei
!!!SCT:	Tin1002e
!!!SCA:	Tin1002e
!!!voices:	3
!!!voices-OPR:	3
**kern	**kern	**kern
*staff3	*staff2	*staff1
*Ivox	*Ivox	*Ivox
*I"Bassus	*I"Tenor	*I"Altus
*I'B	*I'T	*I'A
*>[A,B,A]	*>[A,B,A]	*>[A,B,A]
*>A	*>A	*>A
*clefF4	*clefF4	*clefGv2
*k[b-e-]	*k[b-e-]	*k[b-e-]
*M3/1	*M3/1	*M3/1
*met(O)	*met(O)	*met(O)
!!section: Agnus Dei I, III
!!!OMD: Agnus Dei I, III
=1-	=1-	=1-
2.C/	1.C	0c
4BB-/	.	.
4AA/	.	.
4FF/	.	.
2C/	2E-\	.
1GG	1D	1B-
=2	=2	=2
2.CC/	2C/	1.c
.	1E-	.
2CC/	.	.
4EE-/	.	.
2DD/	2F\	2d\
[1CC	[1G	2.e-\
.	.	8d\L
.	.	8c\J
=3	=3	=3
2CC/]	0G]	2e-\
2.GG/	.	2.d\
4AA/	.	4c\
4BB-/	.	2B-\
4C/	.	.
1D	1F#i	1A
=4	=4	=4
2r	2.G\	2.G/
2.GG/	.	.
.	8F\L	4A/
.	8E-\J	.
.	1D	1B-
4FF/	.	.
2GG/	.	.
2.AA-/	2.C/	1c
8GG/L	8D\L	.
8FF/J	8E-\J	.
=5	=5	=5
2AA-i/	2F\	1r
2.GG/	2.E-\	.
.	.	1r
4FF/	4D\	.
2EE-/	1C	.
1DD	.	2r
.	2BBni/	2d\
=6	=6	=6
1CC	1C	2.e-\
.	.	8d\L
.	.	8c\J
1GG	2r	1B-
.	2D\	.
2.C/	2.E-\	2r
.	.	2c\
8BB-/L	8D/L	.
8AA/J	8C/J	.
=7	=7	=7
1GG	2.BB-/	2.d\
.	4C/	8c\L
.	.	8B-\J
2r	4.D\	1A
.	8C/	.
2C/	2AA/	.
2.D\	1GG	1B-
8C/L	.	.
8BB-/J	.	.
=8	=8	=8
1AA	2r	1c
.	2C/	.
2r	2.D\	2A/
2GG/	.	2B-\
.	8C/L	.
.	8BB-/J	.
2FF/	4AA/	2c\
.	2r	.
[2BB-/	.	[2d\
.	4GG/	.
=9	=9	=9
4BB-/]	4D\	4d\]
4C/	4E-\	4c\
2.D\	2.F\	4B-\
.	.	8A/L
.	.	8G/J
.	.	2F/
4C/	4E-\	.
2BB-/	1D	2.G/
1AA	.	.
.	.	8F#i/L
.	.	8Eni/J
.	2C/	2F#i/
=10	=10	=10
2GG/	2D\	1G
2C/	2E-\	.
4BB-/	2D\	1B-
2GG/	.	.
.	2G\	.
4EE-/	.	.
2FF/	2r	1A
2DD/	2F\	.
=11	=11	=11
2C/	2E-\	2.G/
4D\	2.D\	.
2BB-/	.	4F/
.	.	2E-/
4C/	4C/	.
2AA/	2.C/	2C/
1GG	.	1D
.	8BB-/L	.
.	8AA/J	.
.	4BB-/	.
.	8C/L	.
.	8D/J	.
=12	=12	=12
2r	2.E-\	2.C/
2C/	.	.
.	8D/L	8D/L
.	8C/J	8E-/J
1BB-	2D\	2F/
.	2.G\	1D
1AA	.	.
.	8F\L	.
.	8E-\J	.
.	2F\	2C/
=13	=13	=13
2GG/	2G\	2.D/
2.BB-/	1F	.
.	.	4E-/
.	.	2F/
4AA/	.	.
2BB-/	2D\	1G
2C/	2E-\	.
[2FF/	[2F\	[2A/
=14	=14	=14
4FF/]	4F\]	4A/]
8GG/L	4D\	4B-\
8FF/J	.	.
2EE-/	2E-\	2c\
4DD/	2F\	1d
2r	.	.
.	1G	.
4GG/	.	.
4C/	.	2e-\
8BB-/L	.	.
8C/J	.	.
2D\	2F\	[2f\
=15	=15	=15
2.BB-/	2.D\	4f\]
.	.	4e-\
.	.	4d\
4C/	4E-\	8c\L
.	.	8B-\J
4D\	4F\	4A/
4E-\	4G\	4G/
2C/	2E-\	1c
1GG	1D	.
.	.	2Bni\
=16	=16	=16
0.C	2C/	2c\
.	2.E-\	2G/
.	.	4r
.	4F\	2c\
.	2.G\	.
.	.	4G/
.	.	4.c\
.	4F\	.
.	.	8d\
.	4E-\	4c\
.	8D/L	8B-/L
.	8C/J	8A/J
=17	=17	=17
0.GG	0.D	0.B-
=18	=18	=18
*M3/1	*M3/1	*M3/1
*met(O|)	*met(O|)	*met(O|)
!!LO:TX:Z=18:t=miserere nobis/dona nobis pacem.
0C	1.E-	0.r
.	4D\	.
.	4C/	.
1D	1BB-	.
=19	=19	=19
1.E-	0AA-	0c
4D\	.	.
4C/	.	.
1BB-	1GG	1d
=20	=20	=20
0AA-	0C	1.e-
.	.	4d\
.	.	4c\
2GG/	2D\	2B-\
2C/	2E-\	[2c\
=21	=21	=21
1FF	2.F\	4c\]
.	.	4B-\
.	.	4A/
.	4E-\	4G/
2BB-/	4D\	2F/
.	4C/	.
2GG/	2BB-/	1B-
1FF	1C	.
.	.	2A/
=22	=22	=22
2GG/	1BB-	1B-
1.EE-	.	.
.	2r	1E-
.	1B-	.
1EE-	.	2r
.	[2E-\	2B-\
=23	=23	=23
1CC	2E-\]	2c\
.	4D\	4d\
.	4C/	4e-\
2r	2D\	2f\
2C/	2E-\	1e-
1BB-	1F	.
.	.	2d\
=24	=24	=24
2C/	2.E-\	2c\
1.E-	.	2.B-\
.	4F\	.
.	2G\	.
.	.	4A/
.	1E-	2G/
1BB-	.	1F
.	2D\	.
=25	=25	=25
2C/	1E-	2E-/
2.E-\	.	2.G/
.	1BB-	.
4D\	.	4F/
2C/	.	2E-/
2.BBn/	1GG	1D
4AA/	.	.
=26	=26	=26
1.C	1.G	2C/
.	.	1E-
2D\	2F\	2F/
2C/	2E-\	2G/
4BB-/	4D\	2A/
4AA/	4C/	.
=27	=27	=27
0GG	2D\	2B-\
.	4E-\	4c\
.	4F\	4d\
.	2G\	2e-\
.	4F\	4d\
.	4G\	4e-\
1FF	4A-\	4f\
.	4G\	4e-\
.	4F\	4d\
.	4E-\	4c\
=28	=28	=28
2GG/	2D\	2B-\
2.CC/	2.G\	2.e-\
4DD/	4F\	4d\
4EE-/	2E-\	1c
4FF/	.	.
1GG	1D	.
.	.	2Bni\
=29	=29	=29
0.CCl	0.Cl	0.cl
!!LO:LB:i:g=z
=30||	=30||	=30||
*>B	*>B	*>B
*clefF4	*clefF4	*clefGv2
*k[b-e-]	*k[b-e-]	*k[b-e-]
*M2/1	*M2/1	*M2/1
*met(C|)	*met(C|)	*met(C|)
!	!	!LO:TX:Z=20:t=Agnus Dei II
0r	0C	0c
=31	=31	=31
0r	1E-	1.c
.	1F	.
.	.	4B-\
.	.	4A/
=32	=32	=32
0r	1.G	1B-
.	.	2r
.	[2A-\	2c\
=33	=33	=33
0r	2A-\]	2F/
.	2.G\	2G/
.	.	1A-
.	4E-\	.
.	2F\	.
=34	=34	=34
0r	2.G\	2B-\
.	.	2.E-/
.	4A-i\	.
.	2B-\	.
.	.	4F/
.	[2E-\	[2G/
=35	=35	=35
0r	4E-\]	4G/]
.	4F\	4F/
.	2G\	2E-/
.	2D\	2F/
.	[2E-\	2G/
=36	=36	=36
0r	4E-\]	1C
.	4F\	.
.	2G\	.
.	2.C/	1E-
.	8BBn/L	.
.	8AA/J	.
=37	=37	=37
1r	1BBni	1D
1C	2C/	1r
.	[2E-\	.
=38	=38	=38
2.BB-/	2E-\]	0r
.	2D\	.
4C/	.	.
1D	2F\	.
.	4G\	.
.	4A\	.
=39	=39	=39
1GG	2.B-\	0r
.	4A\	.
1BB-	2F\	.
.	[2G\	.
=40	=40	=40
1AA	2G\]	0r
.	2F#i\	.
1GG	1G	.
=41	=41	=41
0r	2r	1B-
.	1E-	.
.	.	2c\
.	2F\	[2d\
=42	=42	=42
0r	1G	4d\]
.	.	4c\
.	.	2B-\
.	2E-\	4c\
.	.	4B-\
.	[2F\	4A/
.	.	4G/
=43	=43	=43
0r	4F\]	1c
.	4E-\	.
.	2C/	.
.	1D	2r
.	.	2B-\
=44	=44	=44
0r	2E-\	2c\
.	2F\	2d\
.	2.G\	2e-\
.	.	4d\
.	4A\	4c\
=45	=45	=45
0r	2B-\	2d\
.	1G	2B-\
.	.	1A
.	2F#i\	.
=46	=46	=46
0r	0G	2r
.	.	2.B-\
.	.	4A/
.	.	2G/
=47	=47	=47
0r	1.F	2.A/
.	.	4B-\
.	.	2c\
.	2D\	2d\
=48	=48	=48
0r	2.E-\	2G/
.	.	1c
.	4F\	.
.	1D	.
.	.	2Bni\
=49	=49	=49
0C	2r	0c
.	2.E-\	.
.	4D\	.
.	2C/	.
=50	=50	=50
1.BB-	2.D\	0r
.	4E-\	.
.	2F\	.
2GG/	2G\	.
=51	=51	=51
2AA/	2C/	0r
2BB-/	1F	.
1GG	.	.
.	2Eni\	.
=52	=52	=52
2r	2.F\	0r
2.FF/	.	.
.	4E-\	.
.	2.C/	.
4EE-/	.	.
[2CC/	.	.
.	4D\	.
=53	=53	=53
2CC/]	2.E-\	0r
2.C/	.	.
.	4D\	.
.	2E-\	.
4BB-/	.	.
[2D\	[2F\	.
=54	=54	=54
4D\]	4F\]	0r
4C/	4E-\	.
2AA/	2C/	.
1BBni	1D	.
=55	=55	=55
1C	1.C	1r
1r	.	[1G
.	2D\	.
=56	=56	=56
0r	1.E-	2G/]
.	.	2A/
.	.	[1B-
.	4D\	.
.	4C/	.
=57	=57	=57
0r	2BB-/	2B-\]
.	2C/	1A
.	2D\	.
.	[2E-\	[2G/
=58	=58	=58
0r	2E-\]	2G/]
.	2D\	2F/
.	2C/	2E-/
.	4BB-/	4D/
.	4AA/	4C/
=59	=59	=59
0GG;	0BB-;	0D;
=60	=60	=60
0C	0G	1.E-
.	.	2F/
=61	=61	=61
0C	1.E-	0G
.	4D\	.
.	4C/	.
=62	=62	=62
0C	0E-	1.G
.	.	2A/
=63	=63	=63
0GG;	0D;	0B-;
=64	=64	=64
0C	0E-	1.c
.	.	4B-\
.	.	4A/
=65	=65	=65
1D	1F	1B-
1C	1E-	2A-/
.	.	[2G/
=66	=66	=66
2BB-/	2D\	2G/]
4AA/	4C/	2F#i/
4GG/	4BB-/	.
1AA	1C	2F#i/
.	.	4Eni/
.	.	4F#i/
=67	=67	=67
[0GG	0D	0G
=68	=68	=68
0GG]	[0G	1r
.	.	1D
=69	=69	=69
1.C	0G_	1.E-
4BB-/	.	4D/
4AA/	.	4C/
=70	=70	=70
2.BB-/	0G]	1D
4AA/	.	.
2BB-/	.	2r
[2C/	.	2C/
=71	=71	=71
2C/]	1r	2E-/
2D\	.	2F/
1C	1E-	1G
=72	=72	=72
1FF	1.F	1r
1DD	.	1A
.	[2D\	.
=73	=73	=73
0GG	2D\]	1.B-
.	1G	.
.	4F\	4A/
.	4E-\	4G/
=74	=74	=74
1D	1.F	1A
[1E-	.	2r
.	[2G\	2G/
=75	=75	=75
2E-\]	2G\]	2B-\
4D\	4F\	2c\
4C/	4E-\	.
2.BBn/	1D	1d
4AA/	.	.
=76	=76	=76
1C	2C/	1e-
.	1G	.
1r	.	2d\
.	2A\	[2f\
=77	=77	=77
1D	2.F\	4f\]
.	.	4e-\
.	.	4d\
.	4E-\	4c\
2.C/	[1G	1e-
4BB-/	.	.
=78	=78	=78
2GG/	2G\]	1d
2BB-/	2.F\	.
2FF/	.	2.c\
.	4E-\	.
[2FF/	[2C/	.
.	.	4B-\
=79	=79	=79
4FF/]	2C/]	4A/
4EE-/	.	4G/
2CC/	2E-\	1c
1GG	1D	.
.	.	2Bni\
=80	=80	=80
0CCl	0Cl	0cl
!!LO:TX:i:Y=40:rj:t=Agnus primus ut supra
=||	=||	=||
*-	*-	*-
!!!RDF**kern: l=long note in original notation
!!!RDF**kern: i=editorial accidental
!!!RDF**kern: V=start of tuplet marker
!!!RDF**kern: Z=end of tuplet marker
!!!ENC:	Chris Gage 01-13-2015
!!!END:	2015/01/20/
!!!EED:	Jesse Rodin
!!!EEV:	2015/03/09/
!!!ONB:	Translated from MusicXML and edited on 2015/03/09/ by Craig Sapp
!!muse2ps: T^@{OPR}^u^@{ONM}{. }@{OTL}^C^@{COM}^i2I150v95,95,150Q16
